X:1
T:Cipriano de Rore
T:Io canterei d'amor
T:Typeset by Allen Garvin (aurvondel@gmail.com) (ver. 2016-06-04) CC BY-NC 2.5
T:Typeset by Allen Garvin (aurvondel@gmail.com) (ver. 2016-06-04) CC BY-NC 2.5
T:Typeset by Allen Garvin (aurvondel@gmail.com) (ver. 2016-06-04) CC BY-NC 2.5
T:Typeset by Allen Garvin (aurvondel@gmail.com) (ver. 2016-06-04) CC BY-NC 2.5
T:Typeset by Allen Garvin (aurvondel@gmail.com) (ver. 2016-06-04) CC BY-NC 2.5
T:Typeset by Allen Garvin (aurvondel@gmail.com) (ver. 2016-06-04) CC BY-NC 2.5
Z:Typeset by Allen Garvin (aurvondel@gmail.com) (ver. 2016-06-04) CC BY-NC 2.5
%%score 1 2 3 4
L:1/8
Q:1/4=120
M:4/2
K:C
V:1 treble nm="Part_1"
V:2 treble transpose=-12 nm="Part_2"
V:3 treble transpose=-12 nm="Part_3"
V:4 bass nm="Part_4"
V:1
 D4 F2 G2 A4 A4 | A4 A4 G/F/G/A/ GE A3 G | FEDE FG F2 E4 z2 A,2 | C2 D2 E4 G4 FEFG | %4
w: Io can- te- rei d'a-|mor sì no- * * * va- * men- *|* * * * * * * te, io|can­te- * rei d'a- mor _ _ _|
 FEED/C/ D2 D/E/F/D/ E/D/C/D/ E/F/G/E/ F3 E | DCDE D8 C4 | z4 E4 F4 G4 | A12 G4 | %8
w: _ _ _ _ _ _ sì * * * no- * * * * * * * * va-|men- * * * * te|Ch'al du- ro|fian- co il|
 A4 z2 A2 F2 A2 GF/E/FG | F4 C4 D/C/D/E/ D/E/F/D/ EG E/F/G/E/ | FGAF GA!courtesy!_BG FEDC DEFD | %11
w: dì mil- le so- spi- * * * *|ri Trar- rei _ _ _ _ _ _ _ _ per for- * * *||
 ECDE FDEF EFGE F/E/F/E/ F/E/D/E/ | F4 z2 c2 B4 A4 | A4 G4 E4 E4 | D4 F2 G2 A4 A4 | %15
w: |za, et mil- le al-|ti de- si- ri|Rac- cen- de- rei nel-|
 A2 A2 AG/F/ E/D/E/F/ G2 G2 A!courtesy!_BAG | FEDC DEF/D/E/F/ E4 c4 | c4 ABcA BGAB cBcd | %18
w: la ge- la- * * * * * * * ta * men- * *|* * * * * * * * * * te, nel-|la ge- * * * la- * * * * * * *|
 c2 B2 ABcA ^G/A/B/A/ B/A/G/^F/ A/G/A/G/ A/G/F/G/ | A8 z4 F4- | F4 F4 FEFG FDEF | E4 E4 F4 GEFG | %22
w: ta men- * * * * * * * * * * * * * * * * * * * *|te; E'l|* bel vi- * * * * * * *|so ve- drei can- * * *|
 A8 A4 A4- | A2 G2 F2 E2 D4 D2 D2 | E/D/E/D/ E/D/E/F/ GE G/E/F/G/ FEDE FD>EF | E4 z2 C2 D4 E4 | %26
w: giar so- ven-|* * * * * te, Et|ba- * * * * * * * * gnar * gli oc- * * * * * * * * * *|chi, et più pie-|
 F12 E4 | D6 D2 C2 D2 E2 F2 | E4 A2 F2 AG/F/ E/D/C/B,/ A,/B,/C/D/ E/F/G/A/ | G4 z2 G2 G4 cABc | %30
w: to- si|gi- ri Far, _ _ _|_ co- me suol _ _ _ _ _ _ _ _ _ _ _ _ _ _|_ chi de gli al- * * *|
 BcdB cABc dcde d4 | c4 A8 G4 | F4 E2 D2 C2 D2 E2 F2 | G4 E4 E4 E/D/C/D/ E/C/D/E/ | %34
w: trui _ _ _ mar- * * * ti- * * * *|ri Et del|suo er- ror _ _ _ _ _|_ quan- do non _ _ _ _ _ _ _|
 DCDE DE F/E/D/C/ B,/A,/B,/C/ D/C/B,/A,/ B,4 | A,4 A8 A4 | G4 c6 c2 G4 | z4 A8 A4 | %38
w: val _ _ _ _ si * pen- * * * * * * * * * * *|te, co- me|suol, co- me suol|chi de|
 Ac>BA/G/ F/E/F/G/ A/G/A/!courtesy!_B/ A2 F/G/A/F/ G/F/G/A/ G/E/F/G/ | FDEF E4 z4 F4 | %40
w: gli al- trui _ _ _ _ _ _ _ _ _ _ _ _ mar- * * * ti- * * * * * * *|* * * * ri Et|
 G4 A4 D2 E2 FEFG | A2 G2 AGAB c/B/c/B/ c/B/c/d/ c2 BA | G4 A2 cB AG F/E/F/G/ A2 A2 | %43
w: del suo er- ror _ _ _ _ _|_ _ _ _ _ _ _ _ _ _ _ _ _ _ _ _ _|* quan- do non val _ _ _ _ _ _ sì|
 GF E/D/E/F/ G/F/G/A/ !courtesy!_B/A/G/F/ E A2 G/F/ E/D/E/F/ G/F/E | D4 C4 C2 C2 F/E/F/G/ F2 | %45
w: pen- * * * * * * * * * * * * * * * * * * * * * * * *|te, quan- do non val _ _ _ _|
 E4 D8 C4 | z4 C4 C2 C2 F2 F2 | %47
w: si pen- te,|quan- do non val si|
 E/F/G/F/ E/D/E/C/ D/C/D/C/ D/E/D ^C/D/E/D/ E/D/C/B,/ D/C/D/C/ D/C/B,/C/ | D16 |] %49
w: * pen- * * * * * * * * * * * * * * * * * * * * * * * * * * * * *|te.|
V:2
 z16 | A4 c2 d2 e4 f4 | d4 d4 c2 d2 e2 f2 | e6 dc B2 c2 d2 c2- | c2 BA B4 c4 A4- | A2 GF G4 A8 | %6
w: |Io can- te- rei d'a-|mor sì no- * * *||* * * * va- men-|* * * * te,|
 z4 c4 d8 | e4 f8 e4 | c4 z2 A2 A2 A2 c4 | c2 c2 A2 c2 F4 G2 G2 | A4 d6 c2 A4 | c12 c4 | %12
w: Ch'al du-|ro fian- co il|dì mil- le so- spi-|ri, mil- le so- spi- ri Trar-|rei per _ _|for- za,|
 z4 e4 e4 e4 | f2 d2 e6 d2 c2 B2 | A4 d4 z8 | A4 c2 d2 e4 f4 | d4 d4 c2 d2 e2 f2 | e4 d2 c2 d4 c4 | %18
w: et mil- le al-|ti de- si- * * *|* ri|Rac- cen- de- rei nel-|la ge- la- * * *|* * * * ta|
 A2 B2 c2 A2 B8 | A4 c8 d4 | c4 F6 G2 A2 B2 | c4 c4 A4 e4 | c4 f4 e8 | d8 z4 B4 | c4 c4 A8- | %25
w: men- * * * *|te; E'l bel|vi- so _ _ _|_ ve- drei can-|giar so- ven-|te, Et|ba- gnar gli oc-|
 A4 E4 G4 G4 | A12 c4 | !courtesy!_B4 B4 A8 | z4 c8 f4 | e4 e4 e4 e4 | d4 A4 f8 | e4 z2 c2 d4 e4 | %32
w: * chi et più pie-|to- si|gi- ri Far,|co- me|suol chi de gli al-|trui mar- ti-|ri Et del suo|
 A2 B2 c2 d2 e8 | z4 G4 G2 G2 c4 | B4 A6 ^G2 G4 | A4 c8 f4 | e4 e4 e4 e4 | d4 A4 f8 | %38
w: ror * * * *|quan- do non val|si pen- * *|te, co- me|suol chi de gli al-|trui mar- ti-|
 e4 z2 c2 d4 e4 | A2 B2 c2 d2 e2 c2 d4- | d2 c2 c2 BA B4 c4 | f4 f4 e8 | z4 c4 c2 c2 f4 | %43
w: ri Et del suo|ror, * * * * * *|* * * * * * Et|del suo ror|quan- do non val|
 e4 d8 c4 | F6 F2 F4 c4 | c4 !courtesy!_B4 A4 A4 | F6 F2 F4 c4- | c4 !courtesy!_B4 A8 | A16 |] %49
w: si pen- te,|quan- do non val|* si pen- te,|quan- do non val|* si pen-|te.|
V:3
 z16 | z16 | D4 F2 G2 A4 A4 | A4 A4 G4 A4 | A4 G2 F2 G2 A2 F4- | F4 E2 D2 F4 E4 | z4 E4 A4 B4 | %7
w: ||Io can- te­rei * d'a-|mor sì no- va-|men- * * * * *|* * * * te,|Ch'al du- ro|
 c8 B4 c4 | z2 c2 A2 c2 d4 G2 G2 | A4 A4 A2 A2 c4 | F4 !courtesy!_B4 A4 F4 | A4 G2 F2 G8 | %12
w: fian- co il dì|mil- le so- spi- ri, trar-|rei mil- le so- spi-|ri, Trar- rei per|for- * * *|
 F4 z2 A2 G4 c4 | A4 B4 c2 B2 A2 G2 | F2 D2 A4 D8 | z16 | D4 F2 G2 A4 A4 | A4 A4 G4 A4 | F8 E8 | %19
w: za, et mil- le al-|ti de- si- * * *|* * * ri||Rac- cen- de- rei nel-|la ge- la- ta|men- te;|
 z8 A8 | A4 A8 F4 | G4 A4 F4 c4- | c2 A2 d6 c2 c2 Bc | d4 A4 z4 G4 | G4 E4 F2 G2 A2 B2 | %25
w: E'l|bel vi- so|ve- drei can- giar|_ so- ven- * * * *|* te, Et|ba- gnar gli oc- * * *|
 c4 A4 B4 B4 | c12 C4 | F4 G4 E4 c4 | c4 c4 A4 c4- | c4 c4 G8 | z16 | z16 | z16 | z16 | z16 | %35
w: * chi et più pie-|to- si|gi- ri Far, co-|* me suol, co-|* me suol,||||||
 z8 c8 | c4 G2 G2 G4 c4 | B4 c4 d8 | c8 z8 | z16 | z4 F4 G4 A4 | D2 E2 F2 G2 A2 G2 A2 B2 | %42
w: co|me suol chi de gli al-|trui mar- ti-|ri||Et del suo|ror * * * * * * *|
 c4 F4 F4 F4 | c4 G4 A8 | D4 A4 A4 A4 | G6 F2 E8 | D4 A4 A4 A4 | G6 F2 E8 | D16 |] %49
w: * quan- do non|val si pen-|te, quan- do non|val si pen-|te, quan- do non|val si pen-|te.|
V:4
 z4 D,4 F,2 G,2 A,2 F,2 | F,4 F,4 E,4 D,4 | A,8 A,,4 z4 | A,,4 C,2 D,2 E,4 F,4 | D,4 D,4 C,4 D,4 | %5
w: Io can- te- rei d'a-|mor si no- va-|men- te,|io can- te- rei d'a-|mor sì no- va-|
 !courtesy!_B,,8 A,,8- | A,,8 z8 | z4 A,,4 D,4 E,4 | F,12 E,4 | F,4 z2 F,2 D,2 F,2 E,4 | %10
w: men- te|_|Ch'al du- ro|fian- co il|di mil- le so- spi-|
 D,4 G,,4 D,4 D,4 | C,8 C,8 | z4 A,,4 E,4 A,4 | D,2 F,2 E,4 A,,8 | z4 D,4 F,2 G,2 A,2 F,2 | %15
w: ri Trar- rei per|for- za,|et mil- le al-|ti de- si- ri|Rac- cen­de- * rei nel-|
 F,4 F,4 E,4 D,4 | A,8 A,,8 | z16 | z16 | z4 F,8 D,4 | F,2 E,2 D,2 C,2 D,8 | C,4 A,,4 D,4 C,4 | %22
w: la ge- la- ta|men- te;|||E'l bel|vi- * * * *|so ve- drei can-|
 F,4 D,4 A,8 | D,8 z4 G,,4 | C,4 C,4 D,8 | A,,8 G,,4 G,,4 | F,,12 A,,4 | %27
w: giar so- ven-|te, Et|ba- gnar gli oc-|chi et più pie-|to- si|
 !courtesy!_B,,4 G,,4 A,,8 | z4 F,8 F,4 | C,4 C,4 C,4 C,4 | G,4 F,4 D,2 E,2 F,2 G,2 | %31
w: gi- ri Far,|co- me|suol chi de gli al-|trui mar- ti- * * *|
 A,4 A,4 z4 C,4 | D,4 E,4 A,,2 B,,2 C,2 D,2 | E,4 C,4 C,4 C,4 | G,4 D,4 E,8 | A,,4 F,8 F,4 | %36
w: * ri Et|del suo er- ror _ _ _|_ quan- do non|val si pen-|te, co- me|
 C,4 C,4 C,4 C,4 | G,4 F,4 D,2 E,2 F,2 G,2 | A,4 A,4 z4 C,4 | D,4 E,4 A,,4 z4 | z16 | z16 | z16 | %43
w: suol chi de gli al-|trui mar- ti- * * *|* ri Et|del suo ror||||
 z16 | z8 F,,4 F,,2 F,,2 | C,4 G,,4 A,,4 A,,4 | z8 F,,4 F,,2 F,,2 | C,4 G,,4 A,,8 | D,16 |] %49
w: |quan- do non|val si pen- te,|quan- do non|val si pen-|te.|

